X: 03033
T: the GARAND GIRLS
C: Bob McQuillen 24 May 77
B: Bob's Note Book 03 #33
%R: jig
%D:1977
Z: 2020 John Chambers <jc:trillian.mit.edu>
M: 6/8
L: 1/8
K: Em
B \
| BEB BEB | BAB GFE | BEB BEB | ded d2B |\
| BEB BEB | BAB GFE | ede dBG | FED E2 :|
|: e \
| ede dBG | BAB GFE | ede dBA | Bde d2d |\
| ede dBG | BAB GFE | ege dBA | GEE E2 :|
%%begintext align
%% For Betsy & Brenda -
%% with love from Mac
%%endtext
